X:1
T:Beatus, 87.87
T:Beatus, 87.87
T:Thomas Frederick Dunhill  (1877-1946)
T:Public Domain Courtesy of the Cyber Hymnal™
C:Thomas Frederick Dunhill  (1877-1946)
Z:Public Domain
Z:Courtesy of the Cyber Hymnal™
%%score ( 1 2 ) ( 3 4 )
L:1/8
Q:1/4=107
M:none
K:Eb
V:1 treble 
V:2 treble 
V:3 bass 
V:4 bass 
V:1
 [EB]2 | [Ec]2 [Gd]2 [Ec]2 (BA) | [EG]2 [CF]2 !fermata![DG]2 [FA]2 | [FB]2 [EG]2 [CF]2 G2 | %4
 [G,E]2 (DC) !fermata![B,D]2 [DF]2 | [DG]2 G2 [A,A]2 (GF) | [FB]2 B2 !fermata![Cc]2 [F_d]2 | %7
 [Ee]2 [FB]2 (AG) (FE) | D4 !fermata!C2 |] %9
V:2
 x2 | x6 F2 | x8 | x6 (B,A,) | x2 =A,2 x4 | x2 (CB,) x B,2 x | x2 (E_D) x4 | x4 E2 C2 | %8
 (C2 =B,2) C2 |] %9
V:3
 G,2 | [C,G,]2 [B,,G,]2 [C,G,]2 [D,B,]2 | [E,B,]2 [A,C]2 [G,=B,]2 !fermata!C2 | %3
 [D,B,]2 [E,B,]2 [A,,A,]2 [B,,D,]2 | [C,E,]2 [F,,F,]2 !fermata![B,,F,]2 (B,A,) | %5
 [E,G,]2 [E,E]2 [F,E]2 [B,D]2 | [G,B,]2 [G,,B,]2 !fermata![A,,E,]2 [=B,,G,]2 | %7
 [C,G,]2 [D,B,]2 [E,B,]2 [F,A,]2 | [F,,A,]2 (G,F,) !fermata![C,E,]2 |] %9
V:4
 (E,D,) | x8 | x6 (F,E,) | x8 | x6 B,,2 | x8 | x8 | x8 | x2 G,,2 x2 |] %9

